Newaita-dark/actions/22/show-menu.svg

<svg height="22" viewBox="0 0 22 22" width="22" xmlns="http://www.w3.org/2000/svg"><g fill="#e0e0e0"><path d="m2.273438 3.355469c-.25 0-.453126.203125-.453126.453125v.910156c0 .253906.203126.457031.453126.457031h9.4375l1.050781-1.820312zm15.707031 0c-.03125.066406-.0625.132812-.101563.199219l-.933594 1.621093h2.609376c.253906 0 .457031-.203125.457031-.457031v-.910156c0-.25-.203125-.453125-.457031-.453125zm-15.707031 6.820312c-.25 0-.453126.203125-.453126.457031v.910157c0 .25.203126.453125.453126.453125h5.5l1.050781-1.820313zm11.78125 0-1.050782 1.820313h6.550782c.253906 0 .457031-.203125.457031-.453125v-.910157c0-.253906-.203125-.457031-.457031-.457031zm-11.78125 6.824219c-.25 0-.453126.203125-.453126.453125v.910156c0 .253907.203126.457031.453126.457031h1.574218c.03125-.070312.066406-.136718.101563-.199218l.9375-1.621094zm7.84375 0-1.050782 1.820312h10.488282c.253906 0 .457031-.203124.457031-.457031v-.910156c0-.25-.203125-.453125-.457031-.453125zm0 0"/><path d="m16.144531 2.027344c.21875.125.292969.40625.167969.621094l-10.007812 17.332031c-.125.214843-.402344.289062-.621094.164062-.214844-.125-.289063-.402343-.164063-.621093l10.003907-17.328126c.125-.21875.402343-.292968.621093-.167968zm0 0"/></g></svg>

<?xml version="1.0" encoding="UTF-8"?>
<svg xmlns="http://www.w3.org/2000/svg" xmlns:xlink="http://www.w3.org/1999/xlink" width="22px" height="22px" viewBox="0 0 22 22" version="1.1">
<g id="surface1">
<path style=" stroke:none;fill-rule:nonzero;fill:rgb(87.843138%,87.843138%,87.843138%);fill-opacity:1;" d="M 2.273438 3.355469 C 2.023438 3.355469 1.820312 3.558594 1.820312 3.808594 L 1.820312 4.71875 C 1.820312 4.972656 2.023438 5.175781 2.273438 5.175781 L 11.710938 5.175781 L 12.761719 3.355469 Z M 17.980469 3.355469 C 17.949219 3.421875 17.917969 3.488281 17.878906 3.554688 L 16.945312 5.175781 L 19.554688 5.175781 C 19.808594 5.175781 20.011719 4.972656 20.011719 4.71875 L 20.011719 3.808594 C 20.011719 3.558594 19.808594 3.355469 19.554688 3.355469 Z M 2.273438 10.175781 C 2.023438 10.175781 1.820312 10.378906 1.820312 10.632812 L 1.820312 11.542969 C 1.820312 11.792969 2.023438 11.996094 2.273438 11.996094 L 7.773438 11.996094 L 8.824219 10.175781 Z M 14.054688 10.175781 L 13.003906 11.996094 L 19.554688 11.996094 C 19.808594 11.996094 20.011719 11.792969 20.011719 11.542969 L 20.011719 10.632812 C 20.011719 10.378906 19.808594 10.175781 19.554688 10.175781 Z M 2.273438 17 C 2.023438 17 1.820312 17.203125 1.820312 17.453125 L 1.820312 18.363281 C 1.820312 18.617188 2.023438 18.820312 2.273438 18.820312 L 3.847656 18.820312 C 3.878906 18.75 3.914062 18.683594 3.949219 18.621094 L 4.886719 17 Z M 10.117188 17 L 9.066406 18.820312 L 19.554688 18.820312 C 19.808594 18.820312 20.011719 18.617188 20.011719 18.363281 L 20.011719 17.453125 C 20.011719 17.203125 19.808594 17 19.554688 17 Z M 10.117188 17 "/>
<path style=" stroke:none;fill-rule:nonzero;fill:rgb(87.843138%,87.843138%,87.843138%);fill-opacity:1;" d="M 16.144531 2.027344 C 16.363281 2.152344 16.4375 2.433594 16.3125 2.648438 L 6.304688 19.980469 C 6.179688 20.195312 5.902344 20.269531 5.683594 20.144531 C 5.46875 20.019531 5.394531 19.742188 5.519531 19.523438 L 15.523438 2.195312 C 15.648438 1.976562 15.925781 1.902344 16.144531 2.027344 Z M 16.144531 2.027344 "/>
</g>
</svg>
